X: 416
%
U:~=!turn!
T: Miss Maule's Strathspey
C:R. Macintosh
O:Scotland
B:Keith Norman MacDonald : "The Skye collection of the best reels & strathspeys extant" : 1887
Z:Ralph Palmer
R:Strathspey
M:C
L:1/8
K:A
E |\
{AB}c2 A>E F>AE<C | {AB}c2 A>E F<BB>d | c>BA<E F>AE<C | D>FE>G A/A/A A :|
e |\
c>ea>e f>ae<d | c>ea>c {Bc}d<BB>d | c>ea>e f<ae>c | d<fe>d c<AA>e |
c>ea>e f>ae<d | c>ea>c {Bc}dBB(c/d/) | c>ed>f e<ag<b | a>fe>d cAA |]


